;FLAVOR:Marlin
;TIME:2242
;Filament used: 1.05133m
;Layer height: 0.2
;MINX:93.509
;MINY:93.509
;MINZ:0.2
;MAXX:141.491
;MAXY:141.491
;MAXZ:10
;POSTPROCESSED
;Generated with Cura_SteamEngine 4.8.0
M140 S60
M105
M190 S60
M104 S200
M105
M109 S200
M82 ;absolute extrusion mode
; Ender 3 Custom Start G-code
G92 E0 ; Reset Extruder
G28 ; Home all axes
G1 Z2.0 F3000 ; Move Z Axis up little to prevent scratching of Heat Bed
G1 X0.1 Y20 Z0.3 F5000.0 ; Move to start position
G1 X0.1 Y200.0 Z0.3 F1500.0 E15 ; Draw the first line
G1 X0.4 Y200.0 Z0.3 F5000.0 ; Move to side a little
G1 X0.4 Y20 Z0.3 F1500.0 E30 ; Draw the second line
G92 E0 ; Reset Extruder
G1 Z2.0 F3000 ; Move Z Axis up little to prevent scratching of Heat Bed
G1 X5 Y20 Z0.3 F5000.0 ; Move over to prevent blob squish
G92 E0
G92 E0
G1 F1500 E-6.5
;LAYER_COUNT:50
;LAYER:0
M107
G0 F6000 X100.579 Y100.491 Z0.2
;TYPE:SKIRT
G1 F1500 E0
G1 F1200 X100.878 Y100.201 E0.01385
G1 X101.815 Y99.389 E0.05509
G1 X102.878 Y98.568 E0.09977
G1 X103.04 Y98.434 E0.10676
G1 X104.127 Y97.617 E0.15199
G1 X104.906 Y97.082 E0.18342
G1 X105.058 Y96.987 E0.18938
G1 X105.509 Y96.72 E0.20681
G1 X105.905 Y96.498 E0.22191
G1 X107.031 Y95.948 E0.26359
G1 X108.173 Y95.469 E0.30478
G1 X108.641 Y95.269 E0.32171
G1 X109.746 Y94.826 E0.3613
G1 X110.646 Y94.51 E0.39303
G1 X110.824 Y94.456 E0.39921
G1 X111.355 Y94.309 E0.41754
G1 X111.796 Y94.199 E0.43266
G1 X112.987 Y93.971 E0.47299
G1 X114.324 Y93.791 E0.51786
G1 X114.71 Y93.732 E0.53085
G1 X115.893 Y93.591 E0.57047
G1 X116.82 Y93.52 E0.60139
G1 X116.996 Y93.514 E0.60725
G1 X117.541 Y93.509 E0.62538
G1 X117.995 Y93.516 E0.64048
G1 X119.215 Y93.603 E0.68116
G1 X120.457 Y93.761 E0.7228
G1 X120.956 Y93.819 E0.73951
G1 X122.123 Y93.986 E0.77872
G1 X123.118 Y94.175 E0.81241
G1 X123.294 Y94.217 E0.81843
G1 X123.773 Y94.343 E0.8349
G1 X124.202 Y94.466 E0.84974
G1 X125.341 Y94.861 E0.88984
G1 X126.452 Y95.318 E0.9298
G1 X127.084 Y95.587 E0.95264
G1 X127.431 Y95.725 E0.96506
G1 X127.647 Y95.814 E0.97283
G1 X128.041 Y95.981 E0.98706
G1 X129.143 Y96.523 E1.02791
G1 X129.342 Y96.635 E1.03551
G1 X129.593 Y96.781 E1.04516
G1 X129.909 Y96.97 E1.05741
G1 X130.939 Y97.667 E1.09877
G1 X132.011 Y98.486 E1.14364
G1 X132.228 Y98.637 E1.15244
G1 X133.262 Y99.45 E1.19619
G1 X133.887 Y99.98 E1.22344
G1 X134.016 Y100.098 E1.22926
G1 X134.504 Y100.573 E1.25191
G1 X134.815 Y100.895 E1.2668
G1 X135.604 Y101.806 E1.30688
G1 X136.279 Y102.681 E1.34364
G1 X136.729 Y103.281 E1.36858
G1 X137.095 Y103.748 E1.38832
G1 X137.383 Y104.128 E1.40417
G1 X137.856 Y104.811 E1.43181
G1 X137.96 Y104.974 E1.43824
G1 X138.285 Y105.518 E1.45931
G1 X138.505 Y105.911 E1.47429
G1 X139.052 Y107.031 E1.51575
G1 X139.841 Y108.914 E1.58365
G1 X140.177 Y109.752 E1.61368
G1 X140.507 Y110.698 E1.64701
G1 X140.553 Y110.852 E1.65235
G1 X140.683 Y111.327 E1.66873
G1 X140.798 Y111.786 E1.68447
G1 X141.029 Y112.987 E1.72515
G1 X141.197 Y114.229 E1.76683
G1 X141.268 Y114.715 E1.78317
G1 X141.407 Y115.869 E1.82183
G1 X141.48 Y116.829 E1.85385
G1 X141.486 Y117.015 E1.86004
G1 X141.491 Y117.539 E1.87747
G1 X141.484 Y117.995 E1.89264
G1 X141.397 Y119.216 E1.93335
G1 X141.239 Y120.459 E1.97503
G1 X141.206 Y120.772 E1.9855
G1 X141.018 Y122.101 E2.03014
G1 X140.825 Y123.116 E2.0645
G1 X140.782 Y123.296 E2.07066
G1 X140.662 Y123.755 E2.08644
G1 X140.54 Y124.183 E2.10124
G1 X140.14 Y125.337 E2.14186
G1 X139.709 Y126.389 E2.17967
G1 X139.391 Y127.136 E2.20668
G1 X139.231 Y127.538 E2.22107
G1 X139.131 Y127.779 E2.22975
G1 X139.011 Y128.06 E2.23991
G1 X138.523 Y129.059 E2.27689
G1 X138.423 Y129.24 E2.28377
G1 X138.23 Y129.576 E2.29665
G1 X138.025 Y129.918 E2.30992
G1 X137.33 Y130.943 E2.3511
G1 X136.701 Y131.766 E2.38556
G1 X136.286 Y132.295 E2.40792
G1 X135.81 Y132.928 E2.43426
G1 X135.396 Y133.446 E2.45632
G1 X135.18 Y133.7 E2.46741
G1 X134.495 Y134.434 E2.5008
G1 X134.162 Y134.76 E2.5163
G1 X133.2 Y135.599 E2.55875
G1 X132.325 Y136.275 E2.59553
G1 X131.674 Y136.764 E2.62261
G1 X131.23 Y137.112 E2.64137
G1 X130.859 Y137.393 E2.65685
G1 X130.066 Y137.935 E2.6888
G1 X129.918 Y138.027 E2.6946
G1 X129.488 Y138.281 E2.71121
G1 X129.09 Y138.504 E2.72638
G1 X127.967 Y139.052 E2.76794
G1 X126.863 Y139.515 E2.80776
G1 X126.374 Y139.725 E2.82546
G1 X125.26 Y140.172 E2.86538
G1 X124.346 Y140.493 E2.8976
G1 X124.164 Y140.548 E2.90393
G1 X123.639 Y140.692 E2.92203
G1 X123.197 Y140.802 E2.93718
G1 X122.013 Y141.029 E2.97728
G1 X120.637 Y141.215 E3.02346
G1 X120.299 Y141.266 E3.03483
G1 X119.111 Y141.408 E3.07463
G1 X118.18 Y141.48 E3.10568
G1 X118.004 Y141.486 E3.11154
G1 X117.46 Y141.491 E3.12964
G1 X117.005 Y141.484 E3.14477
G1 X115.783 Y141.397 E3.18552
G1 X114.531 Y141.237 E3.2275
G1 X114.044 Y141.181 E3.2438
G1 X112.877 Y141.014 E3.28301
G1 X111.882 Y140.825 E3.3167
G1 X111.706 Y140.783 E3.32272
G1 X111.227 Y140.657 E3.33919
G1 X110.798 Y140.534 E3.35403
G1 X109.659 Y140.139 E3.39413
G1 X108.548 Y139.682 E3.43409
G1 X107.916 Y139.413 E3.45693
G1 X107.569 Y139.275 E3.46935
G1 X107.353 Y139.186 E3.47712
G1 X106.959 Y139.019 E3.49135
G1 X105.857 Y138.477 E3.5322
G1 X105.658 Y138.365 E3.5398
G1 X105.407 Y138.219 E3.54945
G1 X105.091 Y138.03 E3.5617
G1 X104.061 Y137.333 E3.60306
G1 X102.94 Y136.477 E3.64998
G1 X102.713 Y136.317 E3.65921
G1 X101.715 Y135.531 E3.70147
G1 X101.069 Y134.98 E3.72971
G1 X100.955 Y134.875 E3.73486
G1 X100.493 Y134.424 E3.75633
G1 X100.187 Y134.107 E3.77099
G1 X99.406 Y133.205 E3.81067
G1 X98.716 Y132.312 E3.84821
G1 X98.282 Y131.732 E3.8723
G1 X97.905 Y131.252 E3.8926
G1 X97.742 Y131.039 E3.90152
G1 X97.575 Y130.815 E3.91081
G1 X97.038 Y130.025 E3.94259
G1 X96.957 Y129.894 E3.94771
G1 X96.708 Y129.47 E3.96406
G1 X96.487 Y129.074 E3.97915
G1 X95.948 Y127.967 E4.0201
G1 X95.136 Y126.029 E4.08999
G1 X94.821 Y125.242 E4.11818
G1 X94.493 Y124.302 E4.15129
G1 X94.447 Y124.148 E4.15664
G1 X94.315 Y123.668 E4.1732
G1 X94.2 Y123.208 E4.18897
G1 X93.971 Y122.013 E4.22944
G1 X93.801 Y120.754 E4.27169
G1 X93.732 Y120.282 E4.28756
G1 X93.592 Y119.117 E4.32658
G1 X93.517 Y118.119 E4.35987
G1 X93.512 Y117.944 E4.36569
G1 X93.509 Y117.461 E4.38176
G1 X93.516 Y117.005 E4.39693
G1 X93.603 Y115.784 E4.43764
G1 X93.774 Y114.441 E4.48267
G1 X93.801 Y114.184 E4.49126
G1 X93.985 Y112.89 E4.53474
G1 X94.166 Y111.926 E4.56736
G1 X94.208 Y111.747 E4.57347
G1 X94.335 Y111.258 E4.59028
G1 X94.457 Y110.828 E4.60514
G1 X94.865 Y109.649 E4.64664
G1 X95.294 Y108.606 E4.68415
G1 X95.604 Y107.878 E4.71047
G1 X95.774 Y107.452 E4.72572
G1 X95.988 Y106.944 E4.74406
G1 X96.468 Y105.958 E4.78053
G1 X96.567 Y105.778 E4.78736
G1 X96.773 Y105.42 E4.8011
G1 X96.977 Y105.08 E4.81429
G1 X97.667 Y104.063 E4.85516
G1 X98.392 Y103.115 E4.89486
G1 X98.714 Y102.705 E4.9122
G1 X99.19 Y102.072 E4.93854
G1 X99.604 Y101.554 E4.9606
G1 X99.82 Y101.3 E4.97168
G1 X100.257 Y100.816 E4.99337
G1 X100.579 Y100.491 E5.00859
G0 F6000 X100.857 Y100.778
G1 F1200 X101.156 Y100.488 E5.02244
G1 X102.059 Y99.706 E5.06217
G1 X103.017 Y98.966 E5.10244
G1 X103.28 Y98.754 E5.11367
G1 X104.367 Y97.937 E5.1589
G1 X105.118 Y97.421 E5.18921
G1 X105.27 Y97.326 E5.19517
G1 X105.705 Y97.069 E5.21197
G1 X106.101 Y96.847 E5.22707
G1 X107.186 Y96.317 E5.26723
G1 X108.339 Y95.833 E5.30882
G1 X108.79 Y95.64 E5.32514
G1 X109.895 Y95.197 E5.36474
G1 X110.762 Y94.893 E5.39529
G1 X110.94 Y94.839 E5.40148
G1 X111.452 Y94.697 E5.41915
G1 X111.893 Y94.587 E5.43427
G1 X113.041 Y94.367 E5.47315
G1 X114.368 Y94.188 E5.51768
G1 X114.757 Y94.129 E5.53077
G1 X115.94 Y93.988 E5.5704
G1 X116.834 Y93.92 E5.60022
G1 X117.01 Y93.914 E5.60607
G1 X117.534 Y93.909 E5.6235
G1 X117.988 Y93.916 E5.6386
G1 X119.165 Y94 E5.67785
G1 X120.421 Y94.16 E5.71996
G1 X120.9 Y94.215 E5.736
G1 X122.067 Y94.382 E5.77521
G1 X123.025 Y94.565 E5.80765
G1 X123.201 Y94.607 E5.81367
G1 X123.662 Y94.728 E5.82952
G1 X124.091 Y94.851 E5.84436
G1 X125.189 Y95.232 E5.88302
G1 X126.296 Y95.686 E5.92281
G1 X126.959 Y95.968 E5.94678
G1 X127.491 Y96.182 E5.96585
G1 X127.885 Y96.349 E5.98008
G1 X128.947 Y96.872 E6.01946
G1 X129.146 Y96.984 E6.02705
G1 X129.388 Y97.124 E6.03635
G1 X129.704 Y97.313 E6.0486
G1 X130.696 Y97.985 E6.08845
G1 X131.746 Y98.787 E6.13239
G1 X131.981 Y98.951 E6.14192
G1 X133.015 Y99.764 E6.18567
G1 X133.617 Y100.276 E6.21196
G1 X133.746 Y100.394 E6.21777
G1 X134.216 Y100.851 E6.23958
G1 X134.527 Y101.173 E6.25447
G1 X135.287 Y102.051 E6.29309
G1 X135.958 Y102.921 E6.32963
G1 X136.397 Y103.506 E6.35396
G1 X136.78 Y103.995 E6.37462
G1 X137.063 Y104.368 E6.39019
G1 X137.519 Y105.026 E6.41682
G1 X137.623 Y105.189 E6.42325
G1 X137.936 Y105.713 E6.44355
G1 X138.156 Y106.106 E6.45853
G1 X138.683 Y107.186 E6.4985
G1 X139.47 Y109.063 E6.56619
G1 X139.806 Y109.901 E6.59622
G1 X140.124 Y110.812 E6.62831
G1 X140.17 Y110.966 E6.63366
G1 X140.295 Y111.424 E6.64945
G1 X140.41 Y111.883 E6.66519
G1 X140.633 Y113.041 E6.70441
G1 X140.802 Y114.296 E6.74653
G1 X140.871 Y114.762 E6.7622
G1 X141.01 Y115.916 E6.80086
G1 X141.08 Y116.842 E6.83174
G1 X141.086 Y117.028 E6.83793
G1 X141.091 Y117.533 E6.85473
G1 X141.084 Y117.989 E6.8699
G1 X141 Y119.166 E6.90915
G1 X140.852 Y120.325 E6.94801
G1 X140.81 Y120.716 E6.96109
G1 X140.622 Y122.045 E7.00573
G1 X140.436 Y123.023 E7.03884
G1 X140.393 Y123.203 E7.045
G1 X140.277 Y123.646 E7.06023
G1 X140.155 Y124.074 E7.07503
G1 X139.77 Y125.186 E7.11417
G1 X139.34 Y126.232 E7.15178
G1 X139.026 Y126.972 E7.17852
G1 X138.859 Y127.389 E7.19346
G1 X138.763 Y127.622 E7.20184
G1 X138.643 Y127.903 E7.21201
G1 X138.173 Y128.866 E7.24765
G1 X138.073 Y129.047 E7.25452
G1 X137.887 Y129.371 E7.26695
G1 X137.682 Y129.713 E7.28021
G1 X137.012 Y130.7 E7.31989
G1 X136.294 Y131.638 E7.35918
G1 X135.938 Y132.091 E7.37834
G1 X135.49 Y132.687 E7.40314
G1 X135.091 Y133.187 E7.42441
G1 X134.875 Y133.441 E7.4355
G1 X134.215 Y134.149 E7.4677
G1 X133.882 Y134.475 E7.4832
G1 X132.955 Y135.282 E7.52408
G1 X132.085 Y135.955 E7.56066
G1 X131.419 Y136.455 E7.58836
G1 X130.983 Y136.797 E7.60679
G1 X130.619 Y137.073 E7.62198
G1 X129.855 Y137.595 E7.65276
G1 X129.707 Y137.687 E7.65855
G1 X129.292 Y137.932 E7.67458
G1 X128.894 Y138.155 E7.68976
G1 X127.813 Y138.683 E7.72977
G1 X126.697 Y139.151 E7.77002
G1 X126.225 Y139.354 E7.78711
G1 X125.111 Y139.801 E7.82703
G1 X124.23 Y140.11 E7.85808
G1 X124.048 Y140.165 E7.86441
G1 X123.542 Y140.304 E7.88186
G1 X123.1 Y140.414 E7.89701
G1 X121.959 Y140.633 E7.93565
G1 X120.59 Y140.818 E7.9816
G1 X120.251 Y140.869 E7.993
G1 X119.063 Y141.011 E8.0328
G1 X118.166 Y141.08 E8.06272
G1 X117.99 Y141.086 E8.06858
G1 X117.466 Y141.091 E8.08601
G1 X117.011 Y141.084 E8.10114
G1 X115.833 Y141 E8.14042
G1 X114.569 Y140.839 E8.1828
G1 X114.1 Y140.785 E8.1985
G1 X112.933 Y140.618 E8.23771
G1 X111.975 Y140.435 E8.27015
G1 X111.799 Y140.393 E8.27617
G1 X111.338 Y140.272 E8.29202
G1 X110.909 Y140.149 E8.30687
G1 X109.811 Y139.768 E8.34552
G1 X108.704 Y139.314 E8.38532
G1 X108.041 Y139.032 E8.40928
G1 X107.509 Y138.818 E8.42835
G1 X107.115 Y138.651 E8.44259
G1 X106.053 Y138.128 E8.48196
G1 X105.854 Y138.016 E8.48955
G1 X105.612 Y137.876 E8.49885
G1 X105.296 Y137.687 E8.5111
G1 X104.304 Y137.015 E8.55095
G1 X103.183 Y136.159 E8.59786
G1 X102.961 Y136.002 E8.60691
G1 X101.963 Y135.216 E8.64916
G1 X101.34 Y134.686 E8.67636
G1 X101.226 Y134.581 E8.68152
G1 X100.781 Y134.146 E8.70222
G1 X100.475 Y133.829 E8.71687
G1 X99.722 Y132.96 E8.75512
G1 X99.14 Y132.209 E8.78672
G1 X98.591 Y131.478 E8.81712
G1 X98.22 Y131.005 E8.83712
G1 X98.063 Y130.8 E8.8457
G1 X97.896 Y130.576 E8.855
G1 X97.378 Y129.815 E8.88562
G1 X97.297 Y129.684 E8.89074
G1 X97.057 Y129.275 E8.90651
G1 X96.836 Y128.879 E8.92159
G1 X96.317 Y127.813 E8.96103
G1 X95.507 Y125.88 E9.03074
G1 X95.192 Y125.093 E9.05893
G1 X94.876 Y124.188 E9.09081
G1 X94.83 Y124.034 E9.09616
G1 X94.703 Y123.571 E9.11213
G1 X94.588 Y123.111 E9.1279
G1 X94.367 Y121.959 E9.16691
G1 X94.195 Y120.686 E9.20964
G1 X94.129 Y120.235 E9.2248
G1 X93.989 Y119.07 E9.26382
G1 X93.917 Y118.108 E9.29591
G1 X93.912 Y117.933 E9.30173
G1 X93.909 Y117.467 E9.31723
G1 X93.916 Y117.011 E9.3324
G1 X94 Y115.834 E9.37165
G1 X94.168 Y114.518 E9.41577
G1 X94.197 Y114.241 E9.42504
G1 X94.381 Y112.947 E9.46851
G1 X94.555 Y112.018 E9.49994
G1 X94.597 Y111.839 E9.50606
G1 X94.719 Y111.367 E9.52227
G1 X94.841 Y110.937 E9.53714
G1 X95.235 Y109.801 E9.57713
G1 X95.662 Y108.763 E9.61446
G1 X95.985 Y108.004 E9.6419
G1 X96.146 Y107.601 E9.65633
G1 X96.24 Y107.373 E9.66454
G1 X96.356 Y107.101 E9.67437
G1 X96.818 Y106.151 E9.70951
G1 X96.917 Y105.971 E9.71634
G1 X97.116 Y105.625 E9.72961
G1 X97.32 Y105.285 E9.7428
G1 X97.984 Y104.306 E9.78215
G1 X98.706 Y103.362 E9.82167
G1 X99.062 Y102.909 E9.84084
G1 X99.51 Y102.313 E9.86564
G1 X99.909 Y101.813 E9.88691
G1 X100.125 Y101.559 E9.898
G1 X100.547 Y101.091 E9.91896
G1 X100.857 Y100.778 E9.93361
G0 F6000 X101.136 Y101.065
G1 F1200 X101.435 Y100.775 E9.94747
G1 X102.303 Y100.023 E9.98566
G1 X103.407 Y99.171 E10.03205
G1 X103.521 Y99.073 E10.03705
G1 X104.608 Y98.256 E10.08227
G1 X105.33 Y97.76 E10.11141
G1 X105.482 Y97.665 E10.11737
G1 X105.9 Y97.418 E10.13352
G1 X106.296 Y97.196 E10.14862
G1 X107.341 Y96.686 E10.18729
G1 X108.505 Y96.197 E10.22929
G1 X108.938 Y96.011 E10.24496
G1 X110.043 Y95.568 E10.28456
G1 X110.878 Y95.275 E10.31399
G1 X111.056 Y95.221 E10.32018
G1 X111.548 Y95.085 E10.33715
G1 X111.989 Y94.975 E10.35227
G1 X113.094 Y94.764 E10.38969
G1 X114.422 Y94.585 E10.43426
G1 X114.805 Y94.527 E10.44714
G1 X115.988 Y94.386 E10.48676
G1 X116.847 Y94.32 E10.51542
G1 X117.023 Y94.314 E10.52128
G1 X117.528 Y94.309 E10.53807
G1 X117.982 Y94.316 E10.55318
G1 X119.114 Y94.397 E10.59092
G1 X120.296 Y94.548 E10.63056
G1 X120.843 Y94.611 E10.64887
G1 X122.01 Y94.778 E10.68808
G1 X122.933 Y94.954 E10.71933
G1 X123.109 Y94.996 E10.72535
G1 X123.552 Y95.112 E10.74058
G1 X123.981 Y95.235 E10.75542
G1 X125.038 Y95.602 E10.79264
G1 X126.14 Y96.054 E10.83225
G1 X126.835 Y96.349 E10.85737
G1 X127.335 Y96.551 E10.8753
G1 X127.729 Y96.718 E10.88954
G1 X128.751 Y97.22 E10.92741
G1 X128.95 Y97.332 E10.935
G1 X129.183 Y97.467 E10.94396
G1 X129.499 Y97.656 E10.9562
G1 X130.453 Y98.303 E10.99454
G1 X131.486 Y99.092 E11.03778
G1 X131.734 Y99.266 E11.04785
G1 X132.768 Y100.079 E11.0916
G1 X133.347 Y100.571 E11.11687
G1 X133.476 Y100.689 E11.12269
G1 X133.929 Y101.129 E11.14369
G1 X134.24 Y101.451 E11.15858
G1 X134.971 Y102.296 E11.19574
G1 X135.545 Y103.038 E11.22694
G1 X136.087 Y103.761 E11.257
G1 X136.465 Y104.242 E11.27735
G1 X136.743 Y104.608 E11.29263
G1 X137.182 Y105.242 E11.31828
G1 X137.286 Y105.405 E11.32471
G1 X137.587 Y105.909 E11.34424
G1 X137.807 Y106.302 E11.35922
G1 X138.314 Y107.341 E11.39767
G1 X139.098 Y109.212 E11.46514
G1 X139.434 Y110.05 E11.49517
G1 X139.74 Y110.927 E11.52606
G1 X139.786 Y111.081 E11.53141
G1 X139.907 Y111.521 E11.54659
G1 X140.022 Y111.98 E11.56233
G1 X140.236 Y113.094 E11.60005
G1 X140.394 Y114.267 E11.63942
G1 X140.474 Y114.81 E11.65768
G1 X140.613 Y115.964 E11.69634
G1 X140.681 Y116.855 E11.72606
G1 X140.687 Y117.041 E11.73225
G1 X140.691 Y117.527 E11.74841
G1 X140.684 Y117.983 E11.76358
G1 X140.603 Y119.115 E11.80133
G1 X140.47 Y120.161 E11.8364
G1 X140.413 Y120.66 E11.8531
G1 X140.225 Y121.989 E11.89774
G1 X140.047 Y122.93 E11.9296
G1 X140.004 Y123.11 E11.93575
G1 X139.892 Y123.536 E11.9504
G1 X139.77 Y123.964 E11.96521
G1 X139.4 Y125.034 E12.00286
G1 X138.972 Y126.076 E12.04033
G1 X138.661 Y126.808 E12.06678
G1 X138.488 Y127.241 E12.08229
G1 X138.275 Y127.746 E12.10052
G1 X137.823 Y128.673 E12.13482
G1 X137.723 Y128.854 E12.1417
G1 X137.544 Y129.165 E12.15363
G1 X137.339 Y129.507 E12.1669
G1 X136.694 Y130.457 E12.20509
G1 X135.979 Y131.391 E12.24421
G1 X135.651 Y131.808 E12.26186
G1 X135.171 Y132.447 E12.28844
G1 X134.786 Y132.928 E12.30893
G1 X134.57 Y133.182 E12.32002
G1 X133.935 Y133.863 E12.35099
G1 X133.602 Y134.189 E12.36649
G1 X132.711 Y134.966 E12.40581
G1 X131.963 Y135.545 E12.43727
G1 X131.187 Y136.128 E12.46955
G1 X130.736 Y136.482 E12.48862
G1 X130.379 Y136.753 E12.50353
G1 X129.644 Y137.256 E12.53315
G1 X129.496 Y137.348 E12.53895
G1 X129.097 Y137.583 E12.55435
G1 X128.699 Y137.806 E12.56952
